src/assets/filled/Facebook.svg

<?xml version="1.0" encoding="UTF-8"?>
<svg width="24" height="24" viewBox="0 0 24 24" xmlns="http://www.w3.org/2000/svg">
 <path d="m22 16.19c0 3.64-2.17 5.81-5.81 5.81h-1.19c-0.55 0-1-0.45-1-1v-5.77c0-0.27 0.22-0.5 0.49-0.5l1.76-0.03c0.14-0.01 0.26-0.11 0.29-0.25l0.35-1.91c0.03-0.18-0.11-0.35-0.3-0.35l-2.13 0.03c-0.28 0-0.5-0.22-0.51-0.49l-0.04-2.45c0-0.16 0.13-0.29999 0.3-0.29999l2.4-0.04001c0.17 0 0.3-0.12999 0.3-0.29999l-0.04-2.4c0-0.17-0.13-0.29999-0.3-0.29999l-2.7 0.04001c-1.66 0.03-2.98 1.39-2.95 3.05l0.05 2.75c0.01 0.28-0.21 0.5-0.49 0.51l-1.2 0.02c-0.17 0-0.29999 0.13-0.29999 0.3l0.03 1.9c0 0.17 0.12999 0.3 0.29999 0.3l1.2-0.02c0.28 0 0.5 0.22 0.51 0.49l0.09 5.7c0.01 0.56-0.44 1.02-1 1.02h-2.3c-3.64 0-5.81-2.17-5.81-5.82v-8.37c0-3.64 2.17-5.81 5.81-5.81h8.38c3.64 0 5.81 2.17 5.81 5.81v8.38z"/>
</svg>

<svg width="24" height="24" viewBox="0 0 24 24"  xmlns="http://www.w3.org/2000/svg">
<path d="M22 16.19C22 19.83 19.83 22 16.19 22H15C14.45 22 14 21.55 14 21V15.23C14 14.96 14.22 14.73 14.49 14.73L16.25 14.7C16.39 14.69 16.51 14.59 16.54 14.45L16.89 12.54C16.92 12.36 16.78 12.19 16.59 12.19L14.46 12.22C14.18 12.22 13.96 12 13.95 11.73L13.91 9.28C13.91 9.12 14.04 8.98001 14.21 8.98001L16.61 8.94C16.78 8.94 16.91 8.81001 16.91 8.64001L16.87 6.23999C16.87 6.06999 16.74 5.94 16.57 5.94L13.87 5.98001C12.21 6.01001 10.89 7.37 10.92 9.03L10.97 11.78C10.98 12.06 10.76 12.28 10.48 12.29L9.28 12.31C9.11 12.31 8.98001 12.44 8.98001 12.61L9.01001 14.51C9.01001 14.68 9.14 14.81 9.31 14.81L10.51 14.79C10.79 14.79 11.01 15.01 11.02 15.28L11.11 20.98C11.12 21.54 10.67 22 10.11 22H7.81C4.17 22 2 19.83 2 16.18V7.81C2 4.17 4.17 2 7.81 2H16.19C19.83 2 22 4.17 22 7.81V16.19Z" />
</svg>
